X:
T:Scudderie des bois
C:Laurence Beaudry
N:© Laurence Beaudry, Reproduced with permission
Z:robin.beech@mcgill.ca
R:reel
M:4/4
L:1/8
K:A
cecB ABcA | defd agfe | ceae ceA2 | GBdB =gfed |
cAFA EAFA | dfaf dafd | ceae =gfed | cdB=G A4 ::
EAAc BAcA | BAcA BecA | FBBd cBdB | cBdf ecBA |
EAAc BAcA | BAFA EAFA |1 =GBdB Acec | =GBdf ecBA :|2
GBdB Acec | dfaf gfed ||
cecB ABcA | defd agfe | ceae ceA2 | GBdB =gfed |
cAFA EAFA | dfaf dafd | ceae =gfed | cdB=G A4 |]

